svg/numbered_list.svg

<svg xmlns="http://www.w3.org/2000/svg" viewBox="0 0 32 32" enable-background="new 0 0 32 32"><path d="M 5.96875 3 L 5.65625 3.34375 C 5.65625 3.34375 4.9001894 4 4.40625 4 L 4.40625 6 C 5.0870573 6 5.5556152 5.7235009 6 5.46875 L 6 10 L 8 10 L 8 4 L 8 3 L 7 3 L 6.40625 3 L 5.96875 3 z M 11 6 L 11 8 L 28 8 L 28 6 L 11 6 z M 6.5 12 C 5.1166667 12 4 13.116667 4 14.5 L 4 15 L 6 15 L 6 14.5 C 6 14.283333 6.2833333 14 6.5 14 C 6.7166667 14 7 14.283333 7 14.5 L 6.96875 14.53125 L 6.90625 14.59375 L 4.3125 17.09375 L 4 17.375 L 4 17.8125 L 4 18 L 4 19 L 5 19 L 9 19 L 9 17 L 7.28125 17 L 8.15625 16.125 L 8.28125 16.03125 L 8.25 16 C 8.7517384 15.589988 9 14.9814 9 14.5 C 9 13.116667 7.8833333 12 6.5 12 z M 11 15 L 11 17 L 28 17 L 28 15 L 11 15 z M 4 21 L 4 23 L 5.375 23 L 5.125 23.40625 L 5 23.625 L 5 23.90625 L 5 24 L 5 25 L 6 25 L 6.5 25 C 6.7166667 25 7 25.283333 7 25.5 C 7 25.716667 6.7166667 26 6.5 26 L 4 26 L 4 28 L 6.5 28 C 7.8833333 28 9 26.883333 9 25.5 C 9 24.494905 8.3217195 23.803761 7.46875 23.40625 L 7.875 22.71875 L 8 22.46875 L 8 22.1875 L 8 22 L 8 21 L 7 21 L 4 21 z M 11 24 L 11 26 L 28 26 L 28 24 L 11 24 z" color="#000" overflow="visible" enable-background="accumulate"/></svg>

<svg xmlns="http://www.w3.org/2000/svg" viewBox="0 0 32 32"><path d="M5.97 3l-.314.344S4.9 4 4.406 4v2c.68 0 1.15-.276 1.594-.53V10h2V3H5.97zM11 6v2h17V6H11zm-4.5 6C5.117 12 4 13.117 4 14.5v.5h2v-.5c0-.217.283-.5.5-.5.217 0 .5.283.5.5l-.03.03-.064.064-2.593 2.5-.313.28V19h5v-2H7.28l.876-.875.125-.094-.03-.03c.502-.41.75-1.02.75-1.5C9 13.117 7.883 12 6.5 12zm4.5 3v2h17v-2H11zm-7 6v2h1.375l-.25.406-.125.22V25h1.5c.217 0 .5.283.5.5 0 .217-.283.5-.5.5H4v2h2.5C7.883 28 9 26.883 9 25.5c0-1.005-.678-1.696-1.53-2.094l.405-.687.125-.25V21H4zm7 3v2h17v-2H11z"/></svg>
